file/fujifilm.svg

<svg clip-rule="evenodd" fill-rule="evenodd" stroke-linejoin="round" stroke-miterlimit="1.41421" viewBox="0 0 560 400" xmlns="http://www.w3.org/2000/svg"><g fill-rule="nonzero" transform="matrix(1.39275 0 0 1.39275 1.44863 .83676)"><path d="m187.439 131.613v-18.473h-11.488c-2.588 0-3.307 1.264-3.307 3.062v27.967l13.935-10.914c.521-.42.823-.735.86-1.642z" fill="#ed1a3a"/><path d="m82.506 113.13v44.027c0 3.779.535 6.43 3.188 7.963 3.555 2.058 9.577 2.088 13.202.057 2.478-1.385 3.425-3.607 3.425-8.008v-41.104c0-1.849.707-2.935 3.29-2.935l11.508-.001.003 42.727c0 9.925-6.25 13.996-11.774 15.507-7.352 2.004-18.518 2.036-25.454-.048-8.289-2.495-12.161-7.401-12.17-15.456l-.007-39.763c0-1.918.69-2.966 2.897-2.966zm76.707-.002v37.54c0 9.231-1.945 13.894-7.412 17.83-2.846 2.043-7.823 4.373-18.606 4.373-6.174 0-8.919-.35-9.289-.436-.523-.121-.735-.442-.735-.893v-4.849c2.536.073 8.343.251 12.68-.366 6.426-.908 8.563-4.725 8.563-10.354v-39.701c0-2.375 1.286-3.144 2.945-3.144zm178.518.012 9.734 43.791.255.006 9.427-39.831c.658-2.605 2.322-3.966 5.241-3.966l17.114-.003v54.219c0 2.536-1.178 3.525-3.758 3.525l-10.515.017.004-46.981h-.874l-10.803 42.83c-.732 2.933-1.837 4.151-4.806 4.151h-7.88l-12.034-46.981h-.89v45.611c0 .921-.373 1.37-1.278 1.37h-5.623v-54.399c0-2.039.809-3.359 3.375-3.359zm-43.764 46.756v-46.76l-11.363.003c-2.592-.057-3.428.981-3.428 3.175v46.489c0 3.853 1.141 8.095 8.844 8.095h24.945c.651 0 .969-.411.969-.997v-5.246s-15.369 0-15.407-.003c-3.06-.156-4.56-1.716-4.56-4.756zm-40.237-46.756c-2.625 0-3.314 1.212-3.314 3.017v54.741h11.704c2.07 0 3.103-.61 3.103-3.045l-.003-54.716zm-66.288 31.385c0 12.046.004 23.327.004 23.327 0 2.441-1.038 3.045-3.1 3.045h-11.701v-26.372zm-127.9-31.396v5.56c0 .395-.187.753-.741.753l-19.055-.007c-2.562 0-3.85 1.229-3.85 3.812v14.667h22.42l.003 5.826c0 .517-.322.788-.829.788h-21.594v23.274c-.048 2.243-1.169 3.136-3.632 3.093h-11.764v-49.797c0-4.405.009-7.97 7.244-7.969zm182.126.003v5.559c0 .396-.193.75-.74.75l-19.063-.007c-2.559 0-3.85 1.232-3.85 3.812v14.667h22.428v5.83c0 .512-.326.786-.834.786h-21.594v23.273c-.041 2.241-1.162 3.137-3.625 3.089h-11.759v-26.367h-10.394l10.121-7.976c.138-.136.271-.259.271-.567v-14.882c0-4.404.003-7.969 7.232-7.967z" fill="#231f20"/></g></svg>

<?xml version="1.0" encoding="UTF-8" standalone="no"?>
<!DOCTYPE svg PUBLIC "-//W3C//DTD SVG 1.1//EN" "http://www.w3.org/Graphics/SVG/1.1/DTD/svg11.dtd">
<svg width="100%" height="100%" viewBox="0 0 560 400" version="1.1" xmlns="http://www.w3.org/2000/svg" xmlns:xlink="http://www.w3.org/1999/xlink" xml:space="preserve" xmlns:serif="http://www.serif.com/" style="fill-rule:evenodd;clip-rule:evenodd;stroke-linejoin:round;stroke-miterlimit:1.41421;">
    <g transform="matrix(1.39275,0,0,1.39275,1.44863,0.83676)">
        <path id="red" d="M187.439,131.613L187.439,113.14L175.951,113.14C173.363,113.14 172.644,114.404 172.644,116.202L172.644,144.169L186.579,133.255C187.1,132.835 187.402,132.52 187.439,131.613Z" style="fill:rgb(237,26,58);fill-rule:nonzero;"/>
        <path id="l" d="M82.506,113.13L82.506,157.157C82.506,160.936 83.041,163.587 85.694,165.12C89.249,167.178 95.271,167.208 98.896,165.177C101.374,163.792 102.321,161.57 102.321,157.169L102.321,116.065C102.321,114.216 103.028,113.13 105.611,113.13L117.119,113.129L117.122,155.856C117.122,165.781 110.872,169.852 105.348,171.363C97.996,173.367 86.83,173.399 79.894,171.315C71.605,168.82 67.733,163.914 67.724,155.859L67.717,116.096C67.717,114.178 68.407,113.13 70.614,113.13L82.506,113.13ZM159.213,113.128L159.213,150.668C159.213,159.899 157.268,164.562 151.801,168.498C148.955,170.541 143.978,172.871 133.195,172.871C127.021,172.871 124.276,172.521 123.906,172.435C123.383,172.314 123.171,171.993 123.171,171.542L123.171,166.693C125.707,166.766 131.514,166.944 135.851,166.327C142.277,165.419 144.414,161.602 144.414,155.973L144.414,116.272C144.414,113.897 145.7,113.128 147.359,113.128L159.213,113.128ZM337.731,113.14L347.465,156.931L347.72,156.937L357.147,117.106C357.805,114.501 359.469,113.14 362.388,113.14L379.502,113.137L379.502,167.356C379.502,169.892 378.324,170.881 375.744,170.881L365.229,170.898L365.233,123.917L364.359,123.917L353.556,166.747C352.824,169.68 351.719,170.898 348.75,170.898L340.87,170.898L328.836,123.917L327.946,123.917L327.946,169.528C327.946,170.449 327.573,170.898 326.668,170.898L321.045,170.898L321.045,116.499C321.045,114.46 321.854,113.14 324.42,113.14L337.731,113.14ZM293.967,159.896L293.967,113.136L282.604,113.139C280.012,113.082 279.176,114.12 279.176,116.314L279.176,162.803C279.176,166.656 280.317,170.898 288.02,170.898L312.965,170.898C313.616,170.898 313.934,170.487 313.934,169.901L313.934,164.655C313.934,164.655 298.565,164.655 298.527,164.652C295.467,164.496 293.967,162.936 293.967,159.896ZM253.73,113.14C251.105,113.14 250.416,114.352 250.416,116.157L250.416,170.898L262.12,170.898C264.19,170.898 265.223,170.288 265.223,167.853L265.22,113.137L253.73,113.14ZM187.442,144.525C187.442,156.571 187.446,167.852 187.446,167.852C187.446,170.293 186.408,170.897 184.346,170.897L172.645,170.897L172.645,144.525L187.442,144.525ZM59.542,113.129L59.542,118.689C59.542,119.084 59.355,119.442 58.801,119.442L39.746,119.435C37.184,119.435 35.896,120.664 35.896,123.247L35.896,137.914L58.316,137.914L58.319,143.74C58.319,144.257 57.997,144.528 57.49,144.528L35.896,144.528L35.896,167.802C35.848,170.045 34.727,170.938 32.264,170.895L20.5,170.895L20.5,121.098C20.5,116.693 20.509,113.128 27.744,113.129L59.542,113.129ZM241.668,113.132L241.668,118.691C241.668,119.087 241.475,119.441 240.928,119.441L221.865,119.434C219.306,119.434 218.015,120.666 218.015,123.246L218.015,137.913L240.443,137.913L240.443,143.743C240.443,144.255 240.117,144.529 239.609,144.529L218.015,144.529L218.015,167.802C217.974,170.043 216.853,170.939 214.39,170.891L202.631,170.891L202.631,144.524L192.237,144.524L202.358,136.548C202.496,136.412 202.629,136.289 202.629,135.981L202.629,121.099C202.629,116.695 202.632,113.13 209.861,113.132L241.668,113.132Z" style="fill:rgb(35,31,32);fill-rule:nonzero;"/>
    </g>
</svg>
